public/assets/img/components/logo-sanctum.svg

<svg width="304" height="60" viewBox="0 0 304 60" fill="none" xmlns="http://www.w3.org/2000/svg">
<circle r="8" transform="matrix(1 0 0 -1 30 30)" fill="#1C5872"/>
<path d="M19.1421 0H28V12H19.9706L12 19.9706V40.0294L19.9706 48H28V60H19.1421C16.49 60 13.9464 58.9464 12.0711 57.0711L2.92893 47.9289C1.05357 46.0536 0 43.51 0 40.8579V38H4C5.10457 38 6 37.1046 6 36C6 34.8954 5.10457 34 4 34H0V26H4C5.10457 26 6 25.1046 6 24C6 22.8954 5.10457 22 4 22H0V19.1421C0 16.49 1.05357 13.9464 2.92893 12.0711L12.0711 2.92893C13.9464 1.05357 16.49 0 19.1421 0Z" fill="url(#paint0_linear)"/>
<path d="M32 60V48H40.0294L48 40.0294V19.9706L40.0294 12H32V0H40.8579C43.51 0 46.0536 1.05357 47.9289 2.92893L57.0711 12.0711C58.9464 13.9464 60 16.49 60 19.1421V22H56C54.8954 22 54 22.8954 54 24C54 25.1046 54.8954 26 56 26H60V34H56C54.8954 34 54 34.8954 54 36C54 37.1046 54.8954 38 56 38H60V40.8579C60 43.51 58.9464 46.0536 57.0711 47.9289L47.9289 57.0711C46.0536 58.9464 43.51 60 40.8579 60H32Z" fill="url(#paint1_linear)"/>
<path d="M88.2988 38.4697H97.6299V42H83.9043V20.6719H88.2988V38.4697Z" fill="black"/>
<path d="M109.07 42C108.875 41.6191 108.733 41.1455 108.646 40.5791C107.62 41.7217 106.287 42.293 104.646 42.293C103.094 42.293 101.805 41.8438 100.779 40.9453C99.7637 40.0469 99.2559 38.9141 99.2559 37.5469C99.2559 35.8672 99.876 34.5781 101.116 33.6797C102.366 32.7812 104.168 32.3271 106.521 32.3174H108.47V31.4092C108.47 30.6768 108.279 30.0908 107.898 29.6514C107.527 29.2119 106.937 28.9922 106.126 28.9922C105.413 28.9922 104.852 29.1631 104.441 29.5049C104.041 29.8467 103.841 30.3154 103.841 30.9111H99.6074C99.6074 29.9932 99.8906 29.1436 100.457 28.3623C101.023 27.5811 101.824 26.9707 102.859 26.5312C103.895 26.082 105.057 25.8574 106.346 25.8574C108.299 25.8574 109.847 26.3506 110.989 27.3369C112.142 28.3135 112.718 29.6904 112.718 31.4678V38.3379C112.728 39.8418 112.938 40.9795 113.348 41.751V42H109.07ZM105.569 39.0557C106.194 39.0557 106.771 38.9189 107.298 38.6455C107.825 38.3623 108.216 37.9863 108.47 37.5176V34.793H106.888C104.769 34.793 103.641 35.5254 103.504 36.9902L103.489 37.2393C103.489 37.7666 103.675 38.2012 104.046 38.543C104.417 38.8848 104.925 39.0557 105.569 39.0557Z" fill="black"/>
<path d="M124.876 30.1201C124.3 30.042 123.792 30.0029 123.353 30.0029C121.751 30.0029 120.701 30.5449 120.203 31.6289V42H115.97V26.1504H119.969L120.086 28.04C120.936 26.585 122.112 25.8574 123.616 25.8574C124.085 25.8574 124.524 25.9209 124.935 26.0479L124.876 30.1201Z" fill="black"/>
<path d="M135.672 42C135.477 41.6191 135.335 41.1455 135.247 40.5791C134.222 41.7217 132.889 42.293 131.248 42.293C129.695 42.293 128.406 41.8438 127.381 40.9453C126.365 40.0469 125.857 38.9141 125.857 37.5469C125.857 35.8672 126.478 34.5781 127.718 33.6797C128.968 32.7812 130.77 32.3271 133.123 32.3174H135.071V31.4092C135.071 30.6768 134.881 30.0908 134.5 29.6514C134.129 29.2119 133.538 28.9922 132.728 28.9922C132.015 28.9922 131.453 29.1631 131.043 29.5049C130.643 29.8467 130.442 30.3154 130.442 30.9111H126.209C126.209 29.9932 126.492 29.1436 127.059 28.3623C127.625 27.5811 128.426 26.9707 129.461 26.5312C130.496 26.082 131.658 25.8574 132.947 25.8574C134.9 25.8574 136.448 26.3506 137.591 27.3369C138.743 28.3135 139.319 29.6904 139.319 31.4678V38.3379C139.329 39.8418 139.539 40.9795 139.949 41.751V42H135.672ZM132.171 39.0557C132.796 39.0557 133.372 38.9189 133.899 38.6455C134.427 38.3623 134.817 37.9863 135.071 37.5176V34.793H133.489C131.37 34.793 130.242 35.5254 130.105 36.9902L130.091 37.2393C130.091 37.7666 130.276 38.2012 130.647 38.543C131.019 38.8848 131.526 39.0557 132.171 39.0557Z" fill="black"/>
<path d="M148.27 36.8291L151.214 26.1504H155.638L150.291 42H146.248L140.901 26.1504H145.325L148.27 36.8291Z" fill="black"/>
<path d="M164.603 42.293C162.278 42.293 160.384 41.5801 158.919 40.1543C157.464 38.7285 156.736 36.8291 156.736 34.4561V34.0459C156.736 32.4541 157.044 31.0332 157.659 29.7832C158.274 28.5234 159.144 27.5566 160.267 26.8828C161.399 26.1992 162.688 25.8574 164.134 25.8574C166.302 25.8574 168.006 26.541 169.246 27.9082C170.496 29.2754 171.121 31.2139 171.121 33.7236V35.4521H161.028C161.165 36.4873 161.575 37.3174 162.259 37.9424C162.952 38.5674 163.826 38.8799 164.881 38.8799C166.512 38.8799 167.786 38.2891 168.704 37.1074L170.784 39.4365C170.149 40.335 169.29 41.0381 168.206 41.5459C167.122 42.0439 165.921 42.293 164.603 42.293ZM164.119 29.2852C163.279 29.2852 162.596 29.5684 162.068 30.1348C161.551 30.7012 161.219 31.5117 161.072 32.5664H166.961V32.2295C166.941 31.292 166.688 30.5693 166.199 30.0615C165.711 29.5439 165.018 29.2852 164.119 29.2852Z" fill="black"/>
<path d="M178.006 42H173.758V19.5H178.006V42Z" fill="black"/>
<path d="M202.117 36.7559C202.117 35.5742 201.702 34.6416 200.872 33.958C200.042 33.2646 198.523 32.6104 196.316 31.9951C194.109 31.3701 192.498 30.6914 191.482 29.959C190.037 28.9238 189.314 27.5664 189.314 25.8867C189.314 24.2559 189.983 22.9326 191.321 21.917C192.669 20.8916 194.388 20.3789 196.478 20.3789C197.894 20.3789 199.158 20.6523 200.271 21.1992C201.395 21.7461 202.264 22.5078 202.879 23.4844C203.494 24.4609 203.802 25.5498 203.802 26.751H201.985C201.985 25.2959 201.487 24.1289 200.491 23.25C199.495 22.3613 198.157 21.917 196.478 21.917C194.847 21.917 193.548 22.2832 192.581 23.0156C191.614 23.7383 191.131 24.6855 191.131 25.8574C191.131 26.9414 191.565 27.8252 192.435 28.5088C193.304 29.1924 194.695 29.7979 196.609 30.3252C198.523 30.8428 199.974 31.3848 200.96 31.9512C201.946 32.5078 202.688 33.1768 203.187 33.958C203.685 34.7393 203.934 35.6621 203.934 36.7266C203.934 38.4062 203.26 39.7539 201.912 40.7695C200.574 41.7852 198.807 42.293 196.609 42.293C195.105 42.293 193.724 42.0244 192.464 41.4873C191.214 40.9502 190.262 40.1982 189.607 39.2314C188.963 38.2646 188.641 37.1562 188.641 35.9062H190.442C190.442 37.4102 191.004 38.5967 192.127 39.4658C193.25 40.335 194.744 40.7695 196.609 40.7695C198.27 40.7695 199.603 40.4033 200.608 39.6709C201.614 38.9385 202.117 37.9668 202.117 36.7559Z" fill="black"/>
<path d="M217.425 42C217.249 41.502 217.137 40.7646 217.088 39.7881C216.473 40.5889 215.687 41.209 214.729 41.6484C213.782 42.0781 212.776 42.293 211.712 42.293C210.188 42.293 208.953 41.8682 208.006 41.0186C207.068 40.1689 206.6 39.0947 206.6 37.7959C206.6 36.2529 207.239 35.0322 208.519 34.1338C209.808 33.2354 211.6 32.7861 213.895 32.7861H217.073V30.9844C217.073 29.8516 216.722 28.9629 216.019 28.3184C215.325 27.6641 214.31 27.3369 212.972 27.3369C211.751 27.3369 210.74 27.6494 209.939 28.2744C209.139 28.8994 208.738 29.6514 208.738 30.5303L206.98 30.5156C206.98 29.2559 207.566 28.167 208.738 27.249C209.91 26.3213 211.351 25.8574 213.06 25.8574C214.827 25.8574 216.219 26.3018 217.234 27.1904C218.26 28.0693 218.787 29.2998 218.816 30.8818V38.3818C218.816 39.915 218.978 41.0625 219.3 41.8242V42H217.425ZM211.917 40.7402C213.089 40.7402 214.134 40.457 215.052 39.8906C215.979 39.3242 216.653 38.5674 217.073 37.6201V34.1338H213.938C212.19 34.1533 210.823 34.4756 209.837 35.1006C208.851 35.7158 208.357 36.5654 208.357 37.6494C208.357 38.5381 208.685 39.2754 209.339 39.8613C210.003 40.4473 210.862 40.7402 211.917 40.7402Z" fill="black"/>
<path d="M225.174 26.1504L225.232 28.8604C225.828 27.8838 226.57 27.1416 227.459 26.6338C228.348 26.1162 229.329 25.8574 230.403 25.8574C232.103 25.8574 233.367 26.3359 234.197 27.293C235.027 28.25 235.447 29.6855 235.457 31.5996V42H233.714V31.585C233.704 30.1689 233.401 29.1143 232.806 28.4209C232.22 27.7275 231.277 27.3809 229.979 27.3809C228.895 27.3809 227.933 27.7227 227.093 28.4062C226.263 29.0801 225.647 29.9932 225.247 31.1455V42H223.504V26.1504H225.174Z" fill="black"/>
<path d="M245.857 40.8135C247.078 40.8135 248.099 40.4717 248.919 39.7881C249.749 39.0947 250.198 38.2012 250.267 37.1074H251.951C251.902 38.0742 251.6 38.958 251.043 39.7588C250.486 40.5498 249.744 41.1699 248.816 41.6191C247.898 42.0684 246.912 42.293 245.857 42.293C243.777 42.293 242.127 41.5703 240.906 40.125C239.695 38.6797 239.09 36.7363 239.09 34.2949V33.7676C239.09 32.2051 239.363 30.8232 239.91 29.6221C240.457 28.4209 241.238 27.4932 242.254 26.8389C243.279 26.1846 244.476 25.8574 245.843 25.8574C247.581 25.8574 249.012 26.375 250.135 27.4102C251.268 28.4453 251.873 29.8076 251.951 31.4971H250.267C250.188 30.2568 249.739 29.2559 248.919 28.4941C248.108 27.7324 247.083 27.3516 245.843 27.3516C244.261 27.3516 243.03 27.9229 242.151 29.0654C241.282 30.208 240.848 31.8096 240.848 33.8701V34.3828C240.848 36.4043 241.282 37.9814 242.151 39.1143C243.03 40.2471 244.266 40.8135 245.857 40.8135Z" fill="black"/>
<path d="M258.191 22.0928V26.1504H261.473V27.5859H258.191V38.1475C258.191 39.0264 258.348 39.6807 258.66 40.1104C258.982 40.54 259.515 40.7549 260.257 40.7549C260.55 40.7549 261.023 40.7061 261.678 40.6084L261.751 42.0439C261.292 42.21 260.667 42.293 259.876 42.293C258.675 42.293 257.801 41.9463 257.254 41.2529C256.707 40.5498 256.434 39.5195 256.434 38.1621V27.5859H253.519V26.1504H256.434V22.0928H258.191Z" fill="black"/>
<path d="M275.301 39.9932C274.246 41.5264 272.562 42.293 270.247 42.293C268.558 42.293 267.273 41.8047 266.395 40.8281C265.516 39.8418 265.066 38.3867 265.047 36.4629V26.1504H266.79V36.2432C266.79 39.2607 268.011 40.7695 270.452 40.7695C272.991 40.7695 274.598 39.7197 275.271 37.6201V26.1504H277.029V42H275.33L275.301 39.9932Z" fill="black"/>
<path d="M283.196 26.1504L283.255 28.7285C283.841 27.7715 284.573 27.0537 285.452 26.5752C286.331 26.0967 287.308 25.8574 288.382 25.8574C290.882 25.8574 292.469 26.8828 293.143 28.9336C293.709 27.9473 294.466 27.1904 295.413 26.6631C296.36 26.126 297.405 25.8574 298.548 25.8574C301.946 25.8574 303.68 27.7129 303.748 31.4238V42H301.99V31.5557C301.98 30.1396 301.673 29.0898 301.067 28.4062C300.472 27.7227 299.495 27.3809 298.138 27.3809C296.878 27.4004 295.813 27.8105 294.944 28.6113C294.075 29.4023 293.592 30.3691 293.494 31.5117V42H291.736V31.4238C291.727 30.0664 291.404 29.0557 290.77 28.3916C290.145 27.7178 289.178 27.3809 287.869 27.3809C286.766 27.3809 285.818 27.6982 285.027 28.333C284.236 28.958 283.65 29.8906 283.27 31.1309V42H281.512V26.1504H283.196Z" fill="black"/>
<defs>
<linearGradient id="paint0_linear" x1="30" y1="0" x2="30" y2="60" gradientUnits="userSpaceOnUse">
<stop stop-color="#7BE7EE"/>
<stop offset="1" stop-color="#18CAF1"/>
</linearGradient>
<linearGradient id="paint1_linear" x1="30" y1="0" x2="30" y2="60" gradientUnits="userSpaceOnUse">
<stop stop-color="#7BE7EE"/>
<stop offset="1" stop-color="#18CAF1"/>
</linearGradient>
</defs>
</svg>

<svg width="304" height="60" fill="none" xmlns="http://www.w3.org/2000/svg"><circle r="8" transform="matrix(1 0 0 -1 30 30)" fill="#1C5872"/><g id="word"><path d="M19.142 0H28v12h-8.03L12 19.97v20.06L19.97 48H28v12h-8.858a10 10 0 01-7.07-2.929L2.928 47.93A10 10 0 010 40.858V38h4a2 2 0 100-4H0v-8h4a2 2 0 100-4H0v-2.858a10 10 0 012.929-7.07l9.142-9.143A10 10 0 0119.142 0z" fill="url(#paint0_linear)"/><path d="M32 60V48h8.03L48 40.03V19.97L40.03 12H32V0h8.858a10 10 0 017.07 2.929l9.143 9.142A10 10 0 0160 19.142V22h-4a2 2 0 100 4h4v8h-4a2 2 0 100 4h4v2.858a10 10 0 01-2.929 7.07l-9.142 9.143A10 10 0 0140.858 60H32z" fill="url(#paint1_linear)"/><path d="M88.299 38.47h9.33V42H83.905V20.672H88.3V38.47zM109.07 42c-.195-.38-.337-.855-.424-1.42-1.026 1.142-2.359 1.713-4 1.713-1.552 0-2.841-.45-3.867-1.348-1.015-.898-1.523-2.03-1.523-3.398 0-1.68.62-2.969 1.86-3.867 1.25-.899 3.052-1.353 5.405-1.363h1.949v-.908c0-.732-.191-1.318-.572-1.758-.371-.44-.961-.659-1.772-.659-.713 0-1.274.171-1.685.513-.4.342-.6.81-.6 1.406h-4.234c0-.918.284-1.767.85-2.549.566-.78 1.367-1.391 2.402-1.83 1.036-.45 2.198-.675 3.487-.675 1.953 0 3.501.494 4.643 1.48 1.153.977 1.729 2.353 1.729 4.13v6.87c.01 1.505.22 2.642.63 3.414V42h-4.278zm-3.501-2.944a3.7 3.7 0 001.729-.41c.527-.284.918-.66 1.172-1.128v-2.725h-1.582c-2.119 0-3.247.732-3.384 2.197l-.015.25c0 .527.186.961.557 1.303.371.342.879.513 1.523.513zM124.876 30.12a11.503 11.503 0 00-1.523-.117c-1.602 0-2.652.542-3.15 1.626V42h-4.233V26.15h3.999l.117 1.89c.85-1.455 2.026-2.183 3.53-2.183.469 0 .908.064 1.319.19l-.059 4.073zM135.672 42c-.195-.38-.337-.855-.425-1.42-1.025 1.142-2.358 1.713-3.999 1.713-1.553 0-2.842-.45-3.867-1.348-1.016-.898-1.524-2.03-1.524-3.398 0-1.68.621-2.969 1.861-3.867 1.25-.899 3.052-1.353 5.405-1.363h1.948v-.908c0-.732-.19-1.318-.571-1.758-.371-.44-.962-.659-1.772-.659-.713 0-1.275.171-1.685.513-.4.342-.601.81-.601 1.406h-4.233c0-.918.283-1.767.85-2.549.566-.78 1.367-1.391 2.402-1.83 1.035-.45 2.197-.675 3.486-.675 1.953 0 3.501.494 4.644 1.48 1.152.977 1.728 2.353 1.728 4.13v6.87c.01 1.505.22 2.642.63 3.414V42h-4.277zm-3.501-2.944c.625 0 1.201-.137 1.728-.41.528-.284.918-.66 1.172-1.128v-2.725h-1.582c-2.119 0-3.247.732-3.384 2.197l-.014.25c0 .527.185.961.556 1.303.372.342.879.513 1.524.513zM148.27 36.83l2.944-10.68h4.424L150.291 42h-4.043l-5.347-15.85h4.424l2.945 10.68zM164.603 42.293c-2.325 0-4.219-.713-5.684-2.139-1.455-1.426-2.183-3.325-2.183-5.698v-.41c0-1.592.308-3.013.923-4.263.615-1.26 1.485-2.226 2.608-2.9 1.132-.684 2.421-1.026 3.867-1.026 2.168 0 3.872.684 5.112 2.051 1.25 1.367 1.875 3.306 1.875 5.816v1.728h-10.093c.137 1.035.547 1.865 1.231 2.49.693.625 1.567.938 2.622.938 1.631 0 2.905-.59 3.823-1.773l2.08 2.33c-.635.898-1.494 1.601-2.578 2.109-1.084.498-2.285.747-3.603.747zm-.484-13.008c-.84 0-1.523.283-2.051.85-.517.566-.849 1.377-.996 2.431h5.889v-.337c-.02-.937-.273-1.66-.762-2.168-.488-.517-1.181-.776-2.08-.776zM178.006 42h-4.248V19.5h4.248V42zM202.117 36.756c0-1.182-.415-2.114-1.245-2.798-.83-.693-2.349-1.348-4.556-1.963-2.207-.625-3.818-1.304-4.834-2.036-1.445-1.035-2.168-2.393-2.168-4.072 0-1.631.669-2.954 2.007-3.97 1.348-1.025 3.067-1.538 5.157-1.538 1.416 0 2.68.273 3.793.82 1.124.547 1.993 1.309 2.608 2.285.615.977.923 2.066.923 3.267h-1.817c0-1.455-.498-2.622-1.494-3.501-.996-.889-2.334-1.333-4.013-1.333-1.631 0-2.93.366-3.897 1.099-.967.722-1.45 1.67-1.45 2.841 0 1.084.434 1.968 1.304 2.652.869.683 2.26 1.289 4.174 1.816 1.914.518 3.365 1.06 4.351 1.626.986.557 1.728 1.226 2.227 2.007.498.781.747 1.704.747 2.769 0 1.68-.674 3.027-2.022 4.043-1.338 1.015-3.105 1.523-5.303 1.523-1.504 0-2.885-.269-4.145-.806-1.25-.537-2.202-1.289-2.857-2.256-.644-.966-.966-2.075-.966-3.325h1.801c0 1.504.562 2.69 1.685 3.56 1.123.869 2.617 1.303 4.482 1.303 1.661 0 2.994-.366 3.999-1.098 1.006-.733 1.509-1.704 1.509-2.915zM217.425 42c-.176-.498-.288-1.235-.337-2.212a6.156 6.156 0 01-2.359 1.86 7.218 7.218 0 01-3.017.645c-1.524 0-2.759-.425-3.706-1.274-.938-.85-1.406-1.924-1.406-3.223 0-1.543.639-2.764 1.919-3.662 1.289-.899 3.081-1.348 5.376-1.348h3.178v-1.802c0-1.132-.351-2.021-1.054-2.666-.694-.654-1.709-.981-3.047-.981-1.221 0-2.232.312-3.033.937-.8.625-1.201 1.377-1.201 2.256l-1.758-.014c0-1.26.586-2.349 1.758-3.267 1.172-.928 2.613-1.392 4.322-1.392 1.767 0 3.159.445 4.174 1.333 1.026.88 1.553 2.11 1.582 3.692v7.5c0 1.533.162 2.68.484 3.442V42h-1.875zm-5.508-1.26c1.172 0 2.217-.283 3.135-.85.927-.566 1.601-1.323 2.021-2.27v-3.486h-3.135c-1.748.02-3.115.342-4.101.967-.986.615-1.48 1.464-1.48 2.548 0 .89.328 1.626.982 2.212.664.586 1.523.88 2.578.88zM225.174 26.15l.058 2.71c.596-.976 1.338-1.718 2.227-2.226a5.744 5.744 0 012.944-.777c1.7 0 2.964.479 3.794 1.436.83.957 1.25 2.393 1.26 4.307V42h-1.743V31.585c-.01-1.416-.313-2.47-.908-3.164-.586-.694-1.529-1.04-2.827-1.04a4.444 4.444 0 00-2.886 1.025c-.83.674-1.446 1.587-1.846 2.74V42h-1.743V26.15h1.67zM245.857 40.813c1.221 0 2.242-.341 3.062-1.025.83-.693 1.279-1.587 1.348-2.68h1.684a5 5 0 01-.908 2.65c-.557.792-1.299 1.412-2.227 1.861a6.64 6.64 0 01-2.959.674c-2.08 0-3.73-.723-4.951-2.168-1.211-1.445-1.816-3.389-1.816-5.83v-.527c0-1.563.273-2.945.82-4.146.547-1.201 1.328-2.129 2.344-2.783 1.025-.654 2.222-.982 3.589-.982 1.738 0 3.169.518 4.292 1.553 1.133 1.035 1.738 2.398 1.816 4.087h-1.684c-.079-1.24-.528-2.241-1.348-3.003-.811-.762-1.836-1.142-3.076-1.142-1.582 0-2.813.57-3.692 1.713-.869 1.143-1.303 2.745-1.303 4.805v.513c0 2.021.434 3.598 1.303 4.731.879 1.133 2.115 1.7 3.706 1.7zM258.191 22.093v4.057h3.282v1.436h-3.282v10.562c0 .878.157 1.533.469 1.962.322.43.855.645 1.597.645.293 0 .766-.049 1.421-.147l.073 1.436c-.459.166-1.084.249-1.875.249-1.201 0-2.075-.347-2.622-1.04-.547-.703-.82-1.733-.82-3.09V27.585h-2.915V26.15h2.915v-4.057h1.757zM275.301 39.993c-1.055 1.533-2.739 2.3-5.054 2.3-1.689 0-2.974-.488-3.852-1.465-.879-.986-1.329-2.441-1.348-4.365V26.15h1.743v10.093c0 3.018 1.221 4.526 3.662 4.526 2.539 0 4.146-1.05 4.819-3.149V26.15h1.758V42h-1.699l-.029-2.007zM283.196 26.15l.059 2.579c.586-.957 1.318-1.675 2.197-2.154.879-.478 1.856-.718 2.93-.718 2.5 0 4.087 1.026 4.761 3.077.566-.987 1.323-1.744 2.27-2.27.947-.538 1.992-.807 3.135-.807 3.398 0 5.132 1.856 5.2 5.567V42h-1.758V31.556c-.01-1.416-.317-2.466-.923-3.15-.595-.683-1.572-1.025-2.929-1.025-1.26.02-2.325.43-3.194 1.23-.869.791-1.352 1.758-1.45 2.9V42h-1.758V31.424c-.009-1.358-.332-2.368-.966-3.032-.625-.674-1.592-1.011-2.901-1.011-1.103 0-2.051.317-2.842.952-.791.625-1.377 1.558-1.757 2.798V42h-1.758V26.15h1.684z"/></g><defs><linearGradient id="paint0_linear" x1="30" y1="0" x2="30" y2="60" gradientUnits="userSpaceOnUse"><stop stop-color="#7BE7EE"/><stop offset="1" stop-color="#18CAF1"/></linearGradient><linearGradient id="paint1_linear" x1="30" y1="0" x2="30" y2="60" gradientUnits="userSpaceOnUse"><stop stop-color="#7BE7EE"/><stop offset="1" stop-color="#18CAF1"/></linearGradient></defs><style>#word{fill:#000}@media (prefers-color-scheme:dark){#word{fill:#fff}}</style></svg>
